public/build/img/user-logo.svg

<svg width="43" height="39" viewBox="0 0 40 39" fill="none" xmlns="http://www.w3.org/2000/svg">
<path d="M20 0.75C17.483 0.75 14.9907 1.23498 12.6653 2.17726C10.3399 3.11953 8.22695 4.50065 6.44716 6.24175C2.85271 9.75805 0.833374 14.5272 0.833374 19.5C0.833374 24.4728 2.85271 29.2419 6.44716 32.7583C8.22695 34.4994 10.3399 35.8805 12.6653 36.8227C14.9907 37.765 17.483 38.25 20 38.25C25.0834 38.25 29.9585 36.2746 33.5529 32.7583C37.1474 29.2419 39.1667 24.4728 39.1667 19.5C39.1667 17.0377 38.6709 14.5995 37.7077 12.3247C36.7445 10.0498 35.3327 7.98285 33.5529 6.24175C31.7731 4.50065 29.6602 3.11953 27.3348 2.17726C25.0094 1.23498 22.517 0.75 20 0.75ZM10.5509 31.275C11.375 29.5875 16.3967 27.9375 20 27.9375C23.6034 27.9375 28.625 29.5875 29.4492 31.275C26.8425 33.3 23.565 34.5 20 34.5C16.435 34.5 13.1575 33.3 10.5509 31.275ZM32.19 28.5562C29.4492 25.2938 22.7984 24.1875 20 24.1875C17.2017 24.1875 10.5509 25.2938 7.81004 28.5562C5.85504 26.0625 4.66671 22.9125 4.66671 19.5C4.66671 11.2313 11.5475 4.5 20 4.5C28.4525 4.5 35.3334 11.2313 35.3334 19.5C35.3334 22.9125 34.145 26.0625 32.19 28.5562ZM20 8.25C16.2817 8.25 13.2917 11.175 13.2917 14.8125C13.2917 18.45 16.2817 21.375 20 21.375C23.7184 21.375 26.7084 18.45 26.7084 14.8125C26.7084 11.175 23.7184 8.25 20 8.25ZM20 17.625C19.2375 17.625 18.5063 17.3287 17.9671 16.8012C17.4279 16.2738 17.125 15.5584 17.125 14.8125C17.125 14.0666 17.4279 13.3512 17.9671 12.8238C18.5063 12.2963 19.2375 12 20 12C20.7625 12 21.4938 12.2963 22.033 12.8238C22.5721 13.3512 22.875 14.0666 22.875 14.8125C22.875 15.5584 22.5721 16.2738 22.033 16.8012C21.4938 17.3287 20.7625 17.625 20 17.625Z" fill="#1E1E1E"/>
</svg>

<svg width="43" height="39" viewBox="0 0 40 39" fill="none" xmlns="http://www.w3.org/2000/svg"><path d="M20 .75c-2.517 0-5.01.485-7.335 1.427a19.2 19.2 0 00-6.218 4.065C2.853 9.758.833 14.527.833 19.5c0 4.973 2.02 9.742 5.614 13.258a19.2 19.2 0 006.218 4.065A19.536 19.536 0 0020 38.25c5.083 0 9.959-1.975 13.553-5.492 3.594-3.516 5.614-8.285 5.614-13.258 0-2.462-.496-4.9-1.46-7.175a18.727 18.727 0 00-4.154-6.083 19.2 19.2 0 00-6.218-4.065A19.537 19.537 0 0020 .75zm-9.45 30.525c.825-1.688 5.847-3.337 9.45-3.337 3.603 0 8.625 1.65 9.45 3.337A15.34 15.34 0 0120 34.5a15.34 15.34 0 01-9.45-3.225zm21.64-2.719c-2.74-3.262-9.392-4.369-12.19-4.369s-9.45 1.107-12.19 4.37A14.658 14.658 0 014.667 19.5c0-8.269 6.88-15 15.333-15s15.333 6.731 15.333 15c0 3.413-1.188 6.563-3.143 9.056zM20 8.25c-3.718 0-6.708 2.925-6.708 6.563 0 3.637 2.99 6.562 6.708 6.562s6.708-2.925 6.708-6.563c0-3.637-2.99-6.562-6.708-6.562zm0 9.375a2.908 2.908 0 01-2.033-.824 2.782 2.782 0 01-.842-1.988c0-.746.303-1.462.842-1.99A2.908 2.908 0 0120 12c.762 0 1.494.296 2.033.824.54.527.842 1.243.842 1.989 0 .745-.303 1.46-.842 1.988-.54.528-1.27.824-2.033.824z" fill="#1E1E1E"/></svg>
